!!!COM: Bach, Johann Sebastian
!!!OTL: 157. Wo Gott zum Haus nicht gibt
!!!ONM: No. 157
!!!OCL: Erk
!!!SCA: BWV 438
!!!YOE: Riemenschneider, Albert
!!!OPR: 371 Harmonized Chorales and 69 Chorale Melodies with Figured Bass
!!!OPT: Bach Chorale Harmonizations
**harm	**root	**kern	**kern	**kern	**kern
!	!	!bass	!tenor	!alto	!sprno
*Iorgan	*Iorgan	*Iorgan	*Iorgan	*Iorgan	*Iorgan
*k[b-e-a-d-g-c-]	*k[b-e-a-d-g-c-]	*k[b-e-a-d-g-c-]	*k[b-e-a-d-g-c-]	*k[b-e-a-d-g-c-]	*k[b-e-a-d-g-c-]
*G-:	*G-:	*G-:	*G-:	*G-:	*G-:
*met(c)	*met(c)	*met(c)	*met(c)	*met(c)	*met(c)
*M4/4	*M4/4	*M4/4	*M4/4	*M4/4	*M4/4
*MM60	*MM60	*MM60	*MM60	*MM60	*MM60
I	4FF	8G-	8B-	4d-	4g-
.	.	8A-	8c-	.	.
=1	=1	=1	=1	=1	=1
Ib	4FF	8B-	8d-	8g-	4dd-
.	.	8c-	8e-	8a-	.
iiib	8AA	4d-	4f	8b-	8dd-
V7	8CC	.	.	[8a-	8cc-
I	4FF	4G-	4d-	8a-]	4b-
.	.	.	.	[8g-	.
V	4CC	4D-	4d-	8g-]	4a-
.	.	.	.	8f	.
=2	=2	=2	=2	=2	=2
I	4FF	4G-	4d-	8g-	4b-
.	.	.	.	8f	.
II	4GG	4A-	4A-	4e-	4cc
V;	4CC;	4D-;	4A-;	4f;	4dd-;
Vb	4CC	4F	4d-	[4a-	4dd-
=3	=3	=3	=3	=3	=3
I	4FF	4G-	[4d-	8a-]	4b-
.	.	.	.	8g-	.
Vb	8CC	8F	8d-]	8a-	4dd-
iiib	8AA	8D-	8f	[8b-	.
IV7b	8BB-	8E-	8g-	8b-]	4cc-
ii	8GG	8A-	8e-	16a-	.
.	.	.	.	16g-	.
Vb	4CC	8F	4d-	[4a-	4dd-
.	.	8D-	.	.	.
=4	=4	=4	=4	=4	=4
I	4FF	4G-	4d-	8a-]	4b-
.	.	.	.	4g-	.
V	4CC	4D-	8d-	.	4a-
.	.	.	8c-	8f	.
I;	4FF;	4GG-;	4B-;	4d-;	4g-;
I	4FF	4G-	4B-	4g-	4dd-
=5	=5	=5	=5	=5	=5
!!linebreak: 2
IV	4BB-	8C-	4c-	4g-	4ee-
.	.	8D-	.	.	.
IVb	4BB-	8E-	8G-	4g-	4ee-
.	.	8F	8A-	.	.
I	4FF	8G-	4B-	4.d-	4b-
.	.	8A-	.	.	.
Ib	8FF	8B-	8g-	.	4dd-
viioD7/ii	8FF#	8G	8f-	[8b-	.
=6	=6	=6	=6	=6	=6
ii	4GG	8A-	4e-	8b-]	4cc-
.	.	8B-	.	16a-	.
.	.	.	.	16g	.
iib	4GG	8c-	4e-	[4a-	4cc-
.	.	8d-	.	.	.
V/ii;	4DD;	4e-;	4e-;	8a-]	4b-;
.	.	.	.	8g;	.
vi	4DD	4E-	4e-	4b-	4gg-
=7	=7	=7	=7	=7	=7
iii	4AA	4B-	4d-	8b-	4ff
.	.	.	.	8a-	.
IV	4BB-	4c-	8e-	8g-	4ee-
.	.	.	8f	8a-	.
I	4FF	8G-	4g-	8b-	4.dd-
.	.	8F	.	8a-	.
vi7	4DD	4E-	4B-	4g-	.
.	.	.	.	.	8ee-
=8	=8	=8	=8	=8	=8
ii7	4GG	4A-	4.c-	4.g-	8cc-
.	.	.	.	.	8b-
V	4CC	4D-	.	.	4a-
.	.	.	16d-	8f	.
.	.	.	16c-	.	.
I;	4FF;	4G-;	4B-;	4d-;	4g-;
==	==	==	==	==	==
*-	*-	*-	*-	*-	*-
!!!CDT: 1685/3//-1750/7/28
!!!OCY: Deutschland
!!!AGN: chorale
!!!AST: Baroque
!!!AIN: vox
!!!YOY: 1941
!!!PPP: New York; London
!!!PPR: G. Schirmer
!!!ENC: David Huron
!!!EED: David Huron
!!!YEN: United States of America
!!!YER: 1992
!!!YEC: Copyright 1992 David Huron
!!!YEM: Rights to all derivative electronic formats reserved.
!!!YER: March 20, 1996
!!!AMT: simple quadruple
!!!EEV: 1.1
!!chor2scor: -l 2 -s 0.6 -o %b.pmx
